svgs/solid/hand-holding-magic.svg

<svg xmlns="http://www.w3.org/2000/svg" viewBox="0 0 576 512"><!-- Font Awesome Pro 6.0.0-alpha2 by @fontawesome - https://fontawesome.com License - https://fontawesome.com/license (Commercial License) --><path d="M224 224C277 224 320 181 320 128C320 128 288 160 224 160C206.25 160 192 142.5 192 128V96C192 78.375 206.375 64 224 64H352C369.625 64 384 78.375 384 96V128C384 162.25 366.5 194.5 341.875 218.75L288 272L305.75 271C382.875 266.625 447.375 205.75 448 129.5V96C448 43 405 0 352 0H224C171 0 128 43 128 96V128C128 179.125 172.875 224 224 224ZM568.197 336.312C555.072 318.5 530.059 314.656 512.264 327.844L392.592 416.016H271.98C263.232 416.016 255.982 408.766 255.982 400.023C255.982 391.273 263.232 384.023 271.98 384.023H350.227C366.225 384.023 380.975 373.148 383.598 357.406C386.848 337.406 371.475 320.031 351.977 320.031H191.986C164.988 320.031 138.865 329.281 117.867 346.281L71.369 384.023H15.998C7.25 384.023 0 391.273 0 400.023V496C0 504.75 7.25 512 15.998 512H362.977C385.006 512 406.896 504.812 424.676 491.727L559.729 392.211C577.51 379.117 581.305 354.094 568.197 336.312Z"/></svg>

<svg xmlns="http://www.w3.org/2000/svg" viewBox="0 0 576 512"><!--! Font Awesome Pro 6.0.0-alpha3 by @fontawesome - https://fontawesome.com License - https://fontawesome.com/license (Commercial License) --><path d="M224 224c53 0 96-43 96-96c0 0-32 32-96 32C206.3 160 192 142.5 192 128L192 96c0-17.62 14.38-32 32-32h128c17.62 0 32 14.38 32 32l0 32c0 34.25-17.5 66.5-42.13 90.75L288 272l17.75-1c77.13-4.375 141.6-65.25 142.3-141.5L447.1 96c0-53-42.1-96-95.1-96H223.1c-53 0-95.1 43-95.1 96l.001 32C128 179.1 172.9 224 224 224zM568.2 336.3c-13.12-17.81-38.14-21.66-55.93-8.469l-119.7 88.17h-120.6c-8.748 0-15.1-7.25-15.1-15.99c0-8.75 7.25-16 15.1-16h78.25c15.1 0 30.75-10.88 33.37-26.62c3.25-20-12.12-37.38-31.62-37.38H191.1c-26.1 0-53.12 9.25-74.12 26.25l-46.5 37.74L15.1 383.1c-8.748 0-15.1 7.274-15.1 16.02L.0001 496C.0001 504.8 7.251 512 15.1 512h346.1c22.03 0 43.92-7.188 61.7-20.27l135.1-99.52C577.5 379.1 581.3 354.1 568.2 336.3z"/></svg>
